site/pages/offline/server-worker-diagram.svg

<?xml version="1.0" encoding="UTF-8"?>
<svg width="268px" height="402px" viewBox="0 0 268 402" version="1.1" xmlns="http://www.w3.org/2000/svg" xmlns:xlink="http://www.w3.org/1999/xlink">
    <!-- Generator: sketchtool 41.2 (35397) - http://www.bohemiancoding.com/sketch -->
    <title>ECC8C545-A3F5-467C-A809-F5D0FD7251BA</title>
    <desc>Created with sketchtool.</desc>
    <defs>
        <rect id="path-swd" x="22" y="348" width="90" height="54"></rect>
        <mask id="mask-2" maskContentUnits="userSpaceOnUse" maskUnits="objectBoundingBox" x="0" y="0" width="90" height="54" fill="white">
            <use xlink:href="#path-swd"></use>
        </mask>
        <rect id="path-3" x="154" y="348" width="90" height="54"></rect>
        <mask id="mask-4" maskContentUnits="userSpaceOnUse" maskUnits="objectBoundingBox" x="0" y="0" width="90" height="54" fill="white">
            <use xlink:href="#path-3"></use>
        </mask>
    </defs>
    <g stroke="none" stroke-width="1" fill="none" fill-rule="evenodd">
        <g transform="translate(-678.000000, -1182.000000)">
            <g transform="translate(679.000000, 1182.000000)">
                <g>
                    <path d="M159.853801,32.5146199 L159.853801,14.9707602 L149.912281,14.9707602 L149.912281,32.5146199 L159.853801,32.5146199 Z M162.426901,10.0584795 C163.128655,10.0584795 163.71345,10.2923977 164.181287,10.7602339 C164.649123,11.2280702 164.883041,11.8128655 164.883041,12.5146199 L164.883041,37.4269006 C164.883041,38.1286587 164.649123,38.7329407 164.181287,39.2397661 C163.71345,39.7465912 163.128655,40 162.426901,40 L147.45614,40 C146.754386,40 146.150099,39.7465912 145.643279,39.2397661 C145.136451,38.7329407 144.883041,38.1286587 144.883041,37.4269006 L144.883041,12.5146199 C144.883041,11.8128655 145.136451,11.2280702 145.643279,10.7602339 C146.150099,10.2923977 146.754386,10.0584795 147.45614,10.0584795 L162.426901,10.0584795 Z M114.94152,5.02923977 L114.94152,32.5146199 L139.97076,32.5146199 L139.97076,40 L105,40 L105,32.5146199 L110.02924,32.5146199 L110.02924,5.02923977 C110.02924,3.70369871 110.516564,2.53411556 111.491228,1.52046784 C112.465892,0.506820117 113.615979,-4.54747351e-13 114.94152,-4.54747351e-13 L159.853801,-4.54747351e-13 L159.853801,5.02923977 L114.94152,5.02923977 Z" id="Page-1-sw-b" fill="#212121"></path>
                    <g transform="translate(31.000000, 226.000000)">
                        <path d="M14.8079625,0.922716628 C15.557383,1.67213714 20.3504644,6.44960674 29.1873566,15.2552693 C38.0242428,24.0609319 44.6908425,30.774373 49.1873536,35.3957845 L46.6580796,37.9250585 L40.0070258,31.2740047 L32.2318501,40.9227166 L9,11.9765808 C11.0609001,10.2903921 13.4964733,8.82279869 16.3067916,7.57377049 L12.2786885,3.45199063 L14.8079625,0.922716628 Z M55.4637002,11.9765808 L44.5971897,25.559719 L23.8946136,4.95081967 C26.70493,4.32630557 29.4839809,4.01405152 32.2318501,4.01405152 C40.1631918,4.01405152 47.9070659,6.66820197 55.4637002,11.9765808 Z" id="Page-1-sw-c" fill="#999999"></path>
                        <text id="OFFLINE" font-family="ProximaNova-Bold, Proxima Nova" font-size="16" font-weight="bold" fill="#212121">
                            <tspan x="0" y="61">OFFLINE</tspan>
                        </text>
                    </g>
                    <g transform="translate(168.000000, 227.000000)">
                        <path d="M29.177665,40.8324873 L4,9.46192893 C12.1895505,3.7089397 20.5820231,0.83248731 29.177665,0.83248731 C37.7733068,0.83248731 46.1657795,3.7089397 54.3553299,9.46192893 L29.177665,40.8324873 Z" id="Page-1-sw-d" fill="#22D69B"></path>
                        <text id="ONLINE" font-family="ProximaNova-Bold, Proxima Nova" font-size="16" font-weight="bold" fill="#212121">
                            <tspan x="0" y="61">ONLINE</tspan>
                        </text>
                    </g>
                    <text id="BACKEND-Copy" font-family="ProximaNova-Bold, Proxima Nova" font-size="16" font-weight="bold" fill="#212121">
                        <tspan x="161.4" y="382">BACKEND</tspan>
                    </text>
                    <text id="OFFLINE-CACHE" font-family="ProximaNova-Bold, Proxima Nova" font-size="16" font-weight="bold" fill="#212121">
                        <tspan x="34.872" y="371">OFFLINE </tspan>
                        <tspan x="40.024" y="390">CACHE</tspan>
                    </text>
                    <g transform="translate(41.000000, 131.000000)">
                        <rect id="Rectangle" fill="#212121" x="0" y="0" width="188" height="39" rx="19.5"></rect>
                        <text id="SERVICE-WORKER" font-family="ProximaNova-Bold, Proxima Nova" font-size="16" font-weight="bold" fill="#F8F8F8">
                            <tspan x="26" y="25">SERVICE WORKER</tspan>
                        </text>
                    </g>
                    <text id="WEB-APP" font-family="ProximaNova-Bold, Proxima Nova" font-size="16" font-weight="bold" fill="#212121">
                        <tspan x="100" y="66">WEB APP</tspan>
                    </text>
                    <use id="Rectangle-3" stroke="#212121" mask="url(#mask-2)" stroke-width="2" stroke-dasharray="5,5" xlink:href="#path-swd"></use>
                    <use id="Rectangle-3-Copy" stroke="#212121" mask="url(#mask-4)" stroke-width="2" stroke-dasharray="5,5" xlink:href="#path-3"></use>
                    <polyline id="Path-2" stroke="#212121" points="246.293041 376.868362 266.155838 376.868362 266.155838 23 173 23"></polyline>
                    <path id="Path-2-decoration-1" d="M183.8,20 L173,23 L183.8,26" stroke="#212121"></path>
                    <polyline id="Path-2-Copy" stroke="#212121" transform="translate(46.577919, 199.934181) scale(-1, 1) translate(-46.577919, -199.934181) " points="73.293041 376.868362 93.1558383 376.868362 93.1558383 23 -4.8316906e-13 23"></polyline>
                    <path id="Path-2-Copy-decoration-1" d="M10.8,20 L-4.8316906e-13,23 L10.8,26" stroke="#212121"></path>
                    <path d="M139,78 L139,122.234613" id="Path-3" stroke="#212121"></path>
                    <path id="Path-3-decoration-1" d="M136,111.434613 L139,122.234613 L142,111.434613" stroke="#212121"></path>
                    <path d="M197,179 L197,223.234613" id="Path-3-Copy" stroke="#212121"></path>
                    <path id="Path-3-Copy-decoration-1" d="M194,212.434613 L197,223.234613 L200,212.434613" stroke="#212121"></path>
                    <path d="M63,179 L63,223.234613" id="Path-3-Copy-2" stroke="#212121"></path>
                    <path id="Path-3-Copy-2-decoration-1" d="M60,212.434613 L63,223.234613 L66,212.434613" stroke="#212121"></path>
                    <path d="M63,295 L63,339.234613" id="Path-3-Copy-3" stroke="#212121"></path>
                    <path id="Path-3-Copy-3-decoration-1" d="M60,328.434613 L63,339.234613 L66,328.434613" stroke="#212121"></path>
                    <path d="M196,295 L196,339.234613" id="Path-3-Copy-4" stroke="#212121"></path>
                    <path id="Path-3-Copy-4-decoration-1" d="M193,328.434613 L196,339.234613 L199,328.434613" stroke="#212121"></path>
                </g>
            </g>
        </g>
    </g>
</svg>

<svg width="268" height="402" viewBox="0 0 268 402" xmlns="http://www.w3.org/2000/svg" xmlns:xlink="http://www.w3.org/1999/xlink"><defs><path id="a" d="M22 348h90v54H22z"/><mask id="c" x="0" y="0" width="90" height="54" fill="#fff"><use xlink:href="#a"/></mask><path id="b" d="M154 348h90v54h-90z"/><mask id="d" x="0" y="0" width="90" height="54" fill="#fff"><use xlink:href="#b"/></mask></defs><g transform="translate(1)" fill="none" fill-rule="evenodd"><path d="M159.854 32.515V14.97h-9.942v17.544h9.942zm2.573-22.457c.702 0 1.286.234 1.754.702.468.468.702 1.053.702 1.755v24.912c0 .702-.234 1.306-.702 1.813-.468.507-1.052.76-1.754.76h-14.97a2.475 2.475 0 0 1-1.814-.76 2.475 2.475 0 0 1-.76-1.813V12.515c0-.702.253-1.287.76-1.755a2.581 2.581 0 0 1 1.813-.702h14.97zM114.942 5.03v27.486h25.029V40H105v-7.485h5.03V5.029c0-1.325.487-2.495 1.461-3.509.975-1.013 2.125-1.52 3.45-1.52h44.913v5.03h-44.912z" fill="#212121"/><path d="M45.808 226.923c.75.75 5.542 5.527 14.38 14.332 8.836 8.806 15.503 15.52 20 20.14l-2.53 2.53-6.651-6.651-7.775 9.649L40 237.977c2.06-1.687 4.496-3.154 7.307-4.403l-4.028-4.122 2.529-2.53zm40.656 11.054L75.597 251.56l-20.702-20.61c2.81-.624 5.589-.936 8.337-.936 7.931 0 15.675 2.654 23.232 7.963z" fill="#999"/><text font-family="ProximaNova-Bold, Proxima Nova" font-size="16" font-weight="bold" fill="#212121" transform="translate(31 226)"><tspan x="0" y="61">OFFLINE</tspan></text><path d="M197.178 267.832L172 236.462c8.19-5.753 16.582-8.63 25.178-8.63 8.595 0 16.988 2.877 25.177 8.63l-25.177 31.37z" fill="#22D69B"/><text font-family="ProximaNova-Bold, Proxima Nova" font-size="16" font-weight="bold" fill="#212121" transform="translate(168 227)"><tspan x="0" y="61">ONLINE</tspan></text><text font-family="ProximaNova-Bold, Proxima Nova" font-size="16" font-weight="bold" fill="#212121"><tspan x="161.4" y="382">BACKEND</tspan></text><text font-family="ProximaNova-Bold, Proxima Nova" font-size="16" font-weight="bold" fill="#212121"><tspan x="34.872" y="371">OFFLINE </tspan> <tspan x="40.024" y="390">CACHE</tspan></text><g transform="translate(41 131)"><rect fill="#212121" width="188" height="39" rx="19.5"/><text font-family="ProximaNova-Bold, Proxima Nova" font-size="16" font-weight="bold" fill="#F8F8F8"><tspan x="26" y="25">SERVICE WORKER</tspan></text></g><text font-family="ProximaNova-Bold, Proxima Nova" font-size="16" font-weight="bold" fill="#212121"><tspan x="100" y="66">WEB APP</tspan></text><use stroke="#212121" mask="url(#c)" stroke-width="2" stroke-dasharray="5,5" xlink:href="#a"/><use stroke="#212121" mask="url(#d)" stroke-width="2" stroke-dasharray="5,5" xlink:href="#b"/><path stroke="#212121" d="M246.293 376.868h19.863V23H173"/><path d="M183.8 20L173 23l10.8 3M19.863 376.868H0V23h93.156" stroke="#212121"/><path d="M10.8 20L0 23l10.8 3M139 78v44.235M136 111.435l3 10.8 3-10.8M197 179v44.235M194 212.435l3 10.8 3-10.8M63 179v44.235M60 212.435l3 10.8 3-10.8M63 295v44.235M60 328.435l3 10.8 3-10.8M196 295v44.235M193 328.435l3 10.8 3-10.8" stroke="#212121"/></g></svg>
